X:136
T:Husbandman & servingman (Hext-Glover)
F:http://www.vwml.org/record/SBG/3/
Z:Original Sibelius transcriptions by M. & S. Graebe
M:4/4
I:linebreak $
K:F
V:1 treble nm="P1"
V:1
"^Hext" C2 | C F F F F2 F2 | G3 A B2 G2 | A F z2 A3 F | G2 A2 B2 AG | G6 cA | F F F F F2 F2 |$ %7
w: |||||||
w: |||||||
 GABG A2 c2 | A3 G F2 E2 | D2 D2 D2 z2 |"^Glover (this seems to be a bass only)" C2 | F3 C2 C3 B, | %12
w: |||||
w: |||||
 A,8 |[K:bass] F,3 G, A,2 F,2 | C6 FE |$ DCB,A, G,3 C | C FFF F3 D | CDC A, C3 A, | B,CDB, C2 C2 | %19
w: |||||||
w: |||||||
 F,4 |[K:treble]"^chorus" C2 |$ F2 A2 A2 B2 | c4 B2 A2 | (A2 G2) G2 A2 | B6 A2 | (B2 c2) d2 B2 | %26
w: |I|pray you tell to|me what your|call- * ing may|be or|are you a- *|
w: |But|sure you are so|fain Then I|will _ tell you|plain I|am a down- right|
 A4 G4 | !fermata!F8 | %28
w: serv- ing|man|
w: hus- band|man|

